src/lib/packages/icons/src/assets/filled/fish.svg

<svg width="24" height="24" viewBox="0 0 24 24" fill="none" xmlns="http://www.w3.org/2000/svg">
<path d="M14.3699 7.51999C13.3499 10.51 13.3599 13.53 14.3899 16.52C14.4299 16.63 14.3899 16.71 14.3599 16.77C14.3299 16.83 14.2699 16.89 14.1499 16.9C13.8899 16.94 13.6399 16.97 13.3799 16.98L9.99989 18.73C9.78989 18.84 9.53989 18.67 9.55989 18.43L9.7699 16.29C8.7299 15.84 7.55989 15.17 6.60989 14.24C6.44989 14.09 6.21989 14.05 6.01989 14.15L3.29989 15.65C3.12989 15.75 2.92989 15.56 3.01989 15.39L4.71989 11.98L3.01989 8.57001C2.92989 8.39001 3.12989 8.21 3.29989 8.31L6.01989 9.81C6.20989 9.92 6.44989 9.88 6.60989 9.72C7.55989 8.79 8.7299 8.11001 9.7699 7.67001L9.55989 5.53C9.53989 5.29 9.78989 5.12001 9.99989 5.23001L13.3799 6.98001C13.6299 6.99001 13.8899 7.02 14.1399 7.06C14.2599 7.08 14.3399 7.15 14.3699 7.22C14.4099 7.31 14.4099 7.37 14.3699 7.5V7.51999ZM20.6899 12.93C19.3999 14.63 17.8599 15.72 16.2499 16.35C16.0899 16.41 15.8999 16.32 15.8499 16.16C14.8899 13.43 14.8999 10.57 15.8499 7.84C15.9099 7.68 16.0899 7.58999 16.2499 7.64999C17.8499 8.26999 19.3899 9.37 20.6799 11.06C21.0999 11.61 21.0999 12.38 20.6799 12.93H20.6899ZM18.7699 11.99C18.7699 11.58 18.4399 11.24 18.0199 11.24C17.6099 11.24 17.2699 11.58 17.2699 11.99C17.2699 12.4 17.6099 12.74 18.0199 12.74C18.4299 12.74 18.7699 12.4 18.7699 11.99Z" fill="currentColor"/>
</svg>

<svg xmlns="http://www.w3.org/2000/svg" width="24" height="24" fill="none"><path fill="currentColor" d="M14.37 7.52c-1.02 2.99-1.01 6.01.02 9 .04.11 0 .19-.03.25s-.09.12-.21.13a6.7 6.7 0 0 1-.77.08L10 18.73c-.21.11-.46-.06-.44-.3l.21-2.14c-1.04-.45-2.21-1.12-3.16-2.05a.516.516 0 0 0-.59-.09l-2.72 1.5c-.17.1-.37-.09-.28-.26l1.7-3.41-1.7-3.41c-.09-.18.11-.36.28-.26l2.72 1.5c.19.11.43.07.59-.09.95-.93 2.12-1.61 3.16-2.05l-.21-2.14c-.02-.24.23-.41.44-.3l3.38 1.75c.25.01.51.04.76.08.12.02.2.09.23.16.04.09.04.15 0 .28v.02Zm6.32 5.41c-1.29 1.7-2.83 2.79-4.44 3.42a.312.312 0 0 1-.4-.19c-.96-2.73-.95-5.59 0-8.32.06-.16.24-.25.4-.19 1.6.62 3.14 1.72 4.43 3.41.42.55.42 1.32 0 1.87h.01Zm-1.92-.94a.749.749 0 1 0-1.498-.002.749.749 0 0 0 1.498.002Z"/></svg>
